Numix-Light/22x22/status/gpm-phone-000.svg

<?xml version="1.0" encoding="UTF-8" standalone="no"?>
<svg
   xmlns:dc="http://purl.org/dc/elements/1.1/"
   xmlns:cc="http://creativecommons.org/ns#"
   xmlns:rdf="http://www.w3.org/1999/02/22-rdf-syntax-ns#"
   xmlns:svg="http://www.w3.org/2000/svg"
   xmlns="http://www.w3.org/2000/svg"
   xmlns:sodipodi="http://sodipodi.sourceforge.net/DTD/sodipodi-0.dtd"
   xmlns:inkscape="http://www.inkscape.org/namespaces/inkscape"
   viewBox="0 0 22 22"
   id="svg3035"
   version="1.1"
   inkscape:version="0.48.5 r10040"
   width="100%"
   height="100%"
   sodipodi:docname="gpm-phone-000.svg">
  <metadata
     id="metadata3061">
    <rdf:RDF>
      <cc:Work
         rdf:about="">
        <dc:format>image/svg+xml</dc:format>
        <dc:type
           rdf:resource="http://purl.org/dc/dcmitype/StillImage" />
      </cc:Work>
    </rdf:RDF>
  </metadata>
  <defs
     id="defs3059" />
  <sodipodi:namedview
     pagecolor="#ffffff"
     bordercolor="#666666"
     borderopacity="1"
     objecttolerance="10"
     gridtolerance="10"
     guidetolerance="10"
     inkscape:pageopacity="0"
     inkscape:pageshadow="2"
     inkscape:window-width="1280"
     inkscape:window-height="998"
     id="namedview3057"
     showgrid="true"
     inkscape:zoom="21.454545"
     inkscape:cx="8.202919"
     inkscape:cy="9.2840866"
     inkscape:window-x="0"
     inkscape:window-y="0"
     inkscape:window-maximized="1"
     inkscape:current-layer="svg3035">
    <inkscape:grid
       type="xygrid"
       id="grid3143" />
  </sodipodi:namedview>
  <path
     inkscape:connector-curvature="0"
     id="path3041"
     d="M 3,4 C 2.446,4 2,4.446 2,5 v 13 c 0,0.554 0.446,1 1,1 h 6 c 0.554,0 1,-0.446 1,-1 V 5 C 10,4.446 9.554,4 9,4 H 3 z m 0.5,1 h 5 C 8.777,5 9,5.223 9,5.5 v 7 C 9,12.777 8.777,13 8.5,13 h -5 C 3.223,13 3,12.777 3,12.5 v -7 C 3,5.223 3.223,5 3.5,5 z m 0,10 C 3.777,15 4,15.223 4,15.5 4,15.777 3.777,16 3.5,16 3.223,16 3,15.777 3,15.5 3,15.223 3.223,15 3.5,15 z m 2,0 C 5.777,15 6,15.223 6,15.5 6,15.223 6.223,15 6.5,15 6.777,15 7,15.223 7,15.5 7,15.777 6.777,16 6.5,16 6.223,16 6,15.777 6,15.5 6,15.777 5.777,16 5.5,16 5.223,16 5,15.777 5,15.5 5,15.223 5.223,15 5.5,15 z m 3,0 C 8.777,15 9,15.223 9,15.5 9,15.777 8.777,16 8.5,16 8.223,16 8,15.777 8,15.5 8,15.223 8.223,15 8.5,15 z m -5,2 C 3.777,17 4,17.223 4,17.5 4,17.777 3.777,18 3.5,18 3.223,18 3,17.777 3,17.5 3,17.223 3.223,17 3.5,17 z m 2,0 C 5.777,17 6,17.223 6,17.5 6,17.223 6.223,17 6.5,17 6.777,17 7,17.223 7,17.5 7,17.777 6.777,18 6.5,18 6.223,18 6,17.777 6,17.5 6,17.777 5.777,18 5.5,18 5.223,18 5,17.777 5,17.5 5,17.223 5.223,17 5.5,17 z m 3,0 C 8.777,17 9,17.223 9,17.5 9,17.777 8.777,18 8.5,18 8.223,18 8,17.777 8,17.5 8,17.223 8.223,17 8.5,17 z"
     style="fill:#353535;fill-rule:evenodd;fill-opacity:1" />
  <path
     style="opacity:0.3;fill:none;stroke:#ffffff;stroke-width:0.5;stroke-linecap:round"
     d="m 3.25,12.5 v -7 C 3.25,5.3615 3.3615,5.25 3.5,5.25 h 5 c 0.1385,0 0.25,0.1115 0.25,0.25 v 7 c 0,0.1385 -0.1115,0.25 -0.25,0.25 h -5 c -0.1385,0 -0.25,-0.1115 -0.25,-0.25 z"
     id="path3047"
     inkscape:connector-curvature="0" />
  <path
     style="font-size:medium;font-style:normal;font-variant:normal;font-weight:normal;font-stretch:normal;text-indent:0;text-align:start;text-decoration:none;line-height:normal;letter-spacing:normal;word-spacing:normal;text-transform:none;direction:ltr;block-progression:tb;writing-mode:lr-tb;text-anchor:start;baseline-shift:baseline;color:#000000;fill:#ef555c;fill-opacity:1;stroke:none;stroke-width:1;marker:none;visibility:visible;display:inline;overflow:visible;enable-background:accumulate;font-family:Sans;-inkscape-font-specification:Sans"
     d="M 15.75,2 C 14.929122,1.9010198 14.061988,2.4658308 14,3.375 l 0,0.03125 C 13.999387,3.6074252 14.000486,3.7988578 14,4 L 13.5,4 C 12.677649,4 12,4.6776486 12,5.5 l 0,12 c 0,0.822351 0.677649,1.5 1.5,1.5 l 5,0 c 0.822351,0 1.5,-0.677649 1.5,-1.5 l 0,-12 C 20,4.6776486 19.322351,4 18.5,4 L 18,4 c 0.0043,-0.1350756 0.0053,-0.2425877 0,-0.40625 C 17.989839,3.2790147 17.922195,2.8949535 17.65625,2.5625 17.367991,2.1908742 16.9402,2.0339768 16.59375,2 c -0.333618,-0.032718 -0.602175,0.00604 -0.8125,0 -0.0081,-2.322e-4 -0.02341,3.446e-4 -0.03125,0 z m -0.09375,1 0.03125,0 c 0.321303,0.014128 0.60923,-0.019935 0.8125,0 0.20327,0.019935 0.285259,0.040556 0.375,0.15625 l 0,0.03125 c 0.08481,0.1060265 0.118051,0.2222553 0.125,0.4375 0.0032,0.099344 0.0043,0.2504612 0,0.375 L 15,4 C 15.00046,3.8096079 14.999427,3.6278533 15,3.4375 15.01875,3.1624994 15.360972,2.9584007 15.65625,3 z M 13.5,5 l 5,0 C 18.785649,5 19,5.2143514 19,5.5 l 0,12 c 0,0.285649 -0.214351,0.5 -0.5,0.5 l -5,0 C 13.214351,18 13,17.785649 13,17.5 l 0,-12 C 13,5.2143514 13.214351,5 13.5,5 z"
     id="path3055"
     inkscape:connector-curvature="0" />
</svg>

<svg xmlns="http://www.w3.org/2000/svg" viewBox="0 0 22 22">
<g style="fill-rule:evenodd">
<path style="opacity:.3" d="m3 5c-0.554 0-1 0.446-1 1v13c0 0.554 0.446 1 1 1h6c0.554 0 1-0.446 1-1v-13c0-0.554-0.446-1-1-1h-6zm0.5 1h5c0.277 0 0.5 0.223 0.5 0.5v7c0 0.277-0.223 0.5-0.5 0.5h-5c-0.277 0-0.5-0.223-0.5-0.5v-7c0-0.277 0.223-0.5 0.5-0.5zm0 10c0.277 0 0.5 0.223 0.5 0.5s-0.223 0.5-0.5 0.5-0.5-0.223-0.5-0.5 0.223-0.5 0.5-0.5zm2 0c0.277 0 0.5 0.223 0.5 0.5 0-0.277 0.223-0.5 0.5-0.5s0.5 0.223 0.5 0.5-0.223 0.5-0.5 0.5-0.5-0.223-0.5-0.5c0 0.277-0.223 0.5-0.5 0.5s-0.5-0.223-0.5-0.5 0.223-0.5 0.5-0.5zm3 0c0.277 0 0.5 0.223 0.5 0.5s-0.223 0.5-0.5 0.5-0.5-0.223-0.5-0.5 0.223-0.5 0.5-0.5zm-5 2c0.277 0 0.5 0.223 0.5 0.5s-0.223 0.5-0.5 0.5-0.5-0.223-0.5-0.5 0.223-0.5 0.5-0.5zm2 0c0.277 0 0.5 0.223 0.5 0.5 0-0.277 0.223-0.5 0.5-0.5s0.5 0.223 0.5 0.5-0.223 0.5-0.5 0.5-0.5-0.223-0.5-0.5c0 0.277-0.223 0.5-0.5 0.5s-0.5-0.223-0.5-0.5 0.223-0.5 0.5-0.5zm3 0c0.277 0 0.5 0.223 0.5 0.5s-0.223 0.5-0.5 0.5-0.5-0.223-0.5-0.5 0.223-0.5 0.5-0.5z"/>
<path style="fill:#353535" d="m3 4c-0.554 0-1 0.446-1 1v13c0 0.554 0.446 1 1 1h6c0.554 0 1-0.446 1-1v-13c0-0.554-0.446-1-1-1h-6zm0.5 1h5c0.277 0 0.5 0.223 0.5 0.5v7c0 0.277-0.223 0.5-0.5 0.5h-5c-0.277 0-0.5-0.223-0.5-0.5v-7c0-0.277 0.223-0.5 0.5-0.5zm0 10c0.277 0 0.5 0.223 0.5 0.5s-0.223 0.5-0.5 0.5-0.5-0.223-0.5-0.5 0.223-0.5 0.5-0.5zm2 0c0.277 0 0.5 0.223 0.5 0.5 0-0.277 0.223-0.5 0.5-0.5s0.5 0.223 0.5 0.5-0.223 0.5-0.5 0.5-0.5-0.223-0.5-0.5c0 0.277-0.223 0.5-0.5 0.5s-0.5-0.223-0.5-0.5 0.223-0.5 0.5-0.5zm3 0c0.277 0 0.5 0.223 0.5 0.5s-0.223 0.5-0.5 0.5-0.5-0.223-0.5-0.5 0.223-0.5 0.5-0.5zm-5 2c0.277 0 0.5 0.223 0.5 0.5s-0.223 0.5-0.5 0.5-0.5-0.223-0.5-0.5 0.223-0.5 0.5-0.5zm2 0c0.277 0 0.5 0.223 0.5 0.5 0-0.277 0.223-0.5 0.5-0.5s0.5 0.223 0.5 0.5-0.223 0.5-0.5 0.5-0.5-0.223-0.5-0.5c0 0.277-0.223 0.5-0.5 0.5s-0.5-0.223-0.5-0.5 0.223-0.5 0.5-0.5zm3 0c0.277 0 0.5 0.223 0.5 0.5s-0.223 0.5-0.5 0.5-0.5-0.223-0.5-0.5 0.223-0.5 0.5-0.5z"/>
</g>
<g style="stroke-linecap:round;fill:none">
<g>
<path style="opacity:.3;stroke:#fff;stroke-width:.5" d="m3.25 12.5v-7c0-0.1385 0.1115-0.25 0.25-0.25h5c0.1385 0 0.25 0.1115 0.25 0.25v7c0 0.1385-0.1115 0.25-0.25 0.25h-5c-0.1385 0-0.25-0.1115-0.25-0.25z"/>
<path style="opacity:.3;stroke:#000" d="m12.5 18.5v-12c0-0.554 0.446-1 1-1h5c0.554 0 1 0.446 1 1v12c0 0.554-0.446 1-1 1h-5c-0.554 0-1-0.446-1-1zm2.003-13.118c0.0007-0.32804 0.0015-0.65608 0.0025-0.98411 0.04076-0.59782 0.6496-0.97673 1.2122-0.89747 0.53292 0.023433 1.1769-0.12412 1.5549 0.3632 0.35076 0.43848 0.1914 1.0212 0.2278 1.5372"/>
</g>
<g style="stroke:#df382c">
<rect width="12.5" x="-17.75" y="13.25" rx=".25" height="5.5" style="opacity:.3;stroke-width:.5" transform="matrix(0 -1 1 0 0 0)"/>
<path d="m12.5 17.5v-12c0-0.554 0.446-1 1-1h5c0.554 0 1 0.446 1 1v12c0 0.554-0.446 1-1 1h-5c-0.554 0-1-0.446-1-1zm2.003-13.118c0.0007-0.32804 0.0015-0.65608 0.0025-0.98411 0.04076-0.59782 0.6496-0.97673 1.2122-0.89747 0.53292 0.023433 1.1769-0.12412 1.5549 0.3632 0.35076 0.43848 0.1914 1.0212 0.2278 1.5372"/>
</g>
</g>
</svg>
